X: 30323
T: Old Memories
R: reel
M: 4/4
K: Edorian
|:BdeB AGFG|eEEE dDDD|EGFG ADGF|1 AGFA BEFA:|2 AGFA BEEE||
deed fgab|gggf gagf|eeed fgab|gggf gafB|
Beed fgab|gggf gagf|beed fgab|bebe fgf2||
|:Bdef gedB|AGFG AGFD|BEEE dGFG|AAAB AGFD|
Bdef gedB|AGFG AGFD|BEEE dGFG|1 AGFD EBEd:|2 AGFD EBE2||

